X:1
T:moonlight sonanta easy
T:moonlight sonanta easy
T:L.van beethoven
T:arr by seahorse
C:L.van beethoven
Z:arr by seahorse
%%score { 1 | 2 }
L:1/8
Q:1/4=150
M:4/4
K:E
V:1 treble nm="Piano" snm="Pno."
V:2 bass 
V:1
!p! z!8vb(! [G,,C,E,G,] z [C,E,G,C] z [E,G,CE] z [G,CEG] |: %1
 z [CEGc] z!8vb)! [EGce] z G[Gceg][Gceg] | %2
!p! z!8vb(! [G,,^B,,D,G,] z [B,,D,G,^B,] z [D,G,B,D] z [G,B,DG]!8vb)! | %3
 z [^B,DG^B] z [DGBd] z G[GBdg][GBdg] | %4
!p! z!8vb(! [C,^E,G,C] z [E,G,C^E] z [G,CEG] z [CEGc]!8vb)! | %5
 z [^EGc^e] z [Gceg] z c[cegc'][cegc'] |!p! z!8vb(! [C,F,A,C]!8vb)! z [CFAc] z c[cfc'][cfc'] | %7
 z!8vb(! [C,E,^^F,C]!8vb)! z [CE^^Fc] z c[c^^fc'][cfc'] | %8
!f!!f!!f! [^Bg^b] z/ g/ z/ g/ z/ g/ z/ g/ z/ g/ z/ g/ z/ g/ | %9
 z/ g/ z/ g/ z/ g/ z/ g/ z/ g/ z/ g/ z/ g/ z/ g/ | %10
 z/ g/ z/ g/ z/ g/ z/ g/ z/ g/ z/ g/ z/ g/ z/ g/ | %11
 z/ g/ z/ g/ z/ g/ z/ g/ z/ g/ z/ g/ z/ g/ z/ g/ | %12
 z/ g/ z/ ^^f/ z/ g/ z/ f/ z/ g/ z/ f/ z/ g/ z/ f/ | g2 !fermata!G,6 | %14
!p! z!8vb(! [G,,C,E,G,] z [C,E,G,C] z [E,G,CE] z [G,CEG] | z [CEGc] z!8vb)! [EGce] z e[ee'][ee'] | %16
!p! z [E,^^F,CE] z [F,CE^^F] z [CEFc] z [EFce] | z [^^Fce^^f] z [cefc'] z e[ee'][ee'] | %18
 z!8vb(! [D,^A,CD] z [A,CD^A]!8vb)! z [CDAc] z [DAcd] | z [^Acd^a] z [cdac'] z [Acda] z A | %20
!p! B2"_express." d4 B>G |({^^FG^A)} (G2 F2-) F(F d>F) | (^A2 G2-) G(G d>G) | (B2 ^A2-) A(A d>A) | %24
"_cresc." B [dd']2 [dd']2 [dd'][Bb][Gg]!mf! | [Gg] [^^F^^f]2 [Ff]2 [Ff][dd'][Ff] | %26
 [^A^a] [Gg]2 [Gg]2 [Gg][dd'][Gg] | [Bb] [^A^a]2 [Aa]2 [Aa][dd'][Aa] | [^B^b]4 [cc']4 | %29
 [^A^a]2{ga} [Bb]6 | [Gg]4 [Aa]4 | [^^F^^f]2({^ef)} [Gg]6 | %32
!ff!!ff!!ff!!ff! [Acea]4- [Acea]/!p![Q:1/4=94]e/f/g/ a/b/c'/b/ | %33
 a/e/f/g/ a/b/c'/b/ a/e/f/g/ a/b/c'/b/ |!<(! a/e/f/g/ a/b/c'/=d'/ e'/^d'/e'/d'/ e'/c'/!<)!b/!f!a/ | %35
!p![Q:1/4=184] g4 ^a4 |{ga} .g2 [A,CEA]2- [A,CEA]/[Q:1/4=94]E/F/G/ A/B/c/B/ | %37
 A/E/F/G/ A/B/c/B/ A/E/F/G/ A/B/c/B/ | A/E/F/G/ A/B/c/B/ A/E/F/G/ A/B/c/B/ | %39
 A/E/F/G/ A/B/c/=d/ e/f/g/a/ b/c'/=d'/^d'/ |[Q:1/4=150]!f! [ee']4 [Gg]4 | [Bb]4 [^^F,C^^F]4 | %42
 [G,B,G].B.B.B .B.B.^A.G | [D^^Fd-][Fd-][Fd-][Fd-] [Fd-][Fd-][Gd-][^Ad] | BBBB BB^AG | %45
 [D^^Fd-][Fd-][Fd-][Fd-] [Fd-][Fd-][Gd-][^Ad] | dddB z eec | z ddB z ^AA^^F | %48
 B[Bb][Bb][Bb] [Bb][Bb][^A^a][Gg] | ^^f[ee'][ee'][ee'] [ee'][ee'][dd'][cc'] | %50
 [Bb][Bb][Bb][Bb] [Bb][Bb][^A^a][Gg] | ^^f[ee'][ee'][ee'] [ee'][ee'][dd'][cc'] | %52
 [Bgb]bbd' z c'c'e' | z bbd' z ^aad' | z bbd' z aac' | z ggb z ^^ff^a |[Q:1/4=150] [Bg]2 z4 B>G | %57
 ^^F2 d2 d2 d2 | d6 b>g | ^^f2 d'2 d'2 d'2 | d'4 d'4 | d'4 d'4 | [B,DG]4 [B,DG]4 | %63
 [^B,DF]4 [B,DF]4 |1!f! [E,G,CE]!p!!8vb(![G,,C,E,G,] z [C,E,G,C] z [E,G,CE] z [G,CEG] :|2 %65
!f! [^E,,G,,C,^E,]!p![G,,C,E,G,] z [C,E,G,C] z [E,G,C^E] z [G,CEG]!8vb)! || %66
 z [^EGc^e] z [Gceg] z c[cc'][cc'] |!p! z!8vb(! [C,^E,G,C] z [E,G,C^E] z [G,CEG]!8vb)! z [CEGc] | %68
 z [^EGc^e] z [Gceg] z c[cc'][cc'] | z!8vb(! [C,F,A,C]!8vb)! z [CFAc] z c[cc'][cc'] | %70
 z!8vb(! [C,G,B,C]!8vb)! z [CGBc] z c[cc'][cc'] | [cc']2 c4 A>F |{^EFG} (F2 E2-) E(E c>E) | %73
 (G2 F2-) F(F c>F) | (A2 G2-) G(G c>G) | [FAc]8 | [GBc]8 | [FAc]8 | [FA=d]4 [A=cd]4 | [=GB=d]8 | %80
 [A=c=d]8 | [=GB=d]8 | [GB=d]8 | [FAc]4 [FAf]4 | [FGdf]8 | [Ece]8 | [Dcd]8 | [D^Bd]2 G4 AG | %88
 F2 GF E2 FE | D2 ED C2 DC |!8vb(! [D,F,^B,]4!8vb)! C4 |"_cresc."{G,} D2 g2 ggag | ffgf eefe | %93
 dded ccdc |!p!"_cresc." [DF^B]4 [CEc]4 |!f! [Fd]6 c2 | ^B2 B2 c2 c2 |!>(! [Fd]6 Ec | F^BFB EcEc | %99
 FdFd EcEc!>)! |!p! [A,CDA]8 |!p! [G,^B,DG]8 | %102
!p! z!8vb(! [G,,C,E,G,] z [C,E,G,C] z [E,G,CE] z [G,CEG] | %103
 z [CEGc] z!8vb)! [EGce] z G[Gceg][Gceg] | %104
!p! z!8vb(! [G,,^B,,D,G,] z [B,,D,G,^B,] z [D,G,B,D] z [G,B,DG]!8vb)! | %105
 z [^B,DG^B] z [DGBd] z G[GBdg][GBdg] | %106
!p! z!8vb(! [C,^E,G,C] z [E,G,C^E] z [G,CEG] z [CEGc]!8vb)! | %107
 z [^EGc^e] z [Gceg] z c[cegc'][cegc'] |!p! z!8vb(! [C,F,A,C]!8vb)! z [CFAc] z c[cfc'][cfc'] | %109
 z!8vb(! [C,E,^^F,C]!8vb)! z [CE^^Fc] z c[c^^fc'][cfc'] | %110
!f!!f!!f! [^Bg^b] z/ g/ z/ g/ z/ g/ z/ g/ z/ g/ z/ g/ z/ g/ | %111
 z/ g/ z/ g/ z/ g/ z/ g/ z/ g/ z/ g/ z/ g/ z/ g/ | %112
 z/ g/ z/ g/ z/ g/ z/ g/ z/ g/ z/ g/ z/ g/ z/ g/ | %113
 z/ g/ z/ g/ z/ g/ z/ g/ z/ g/ z/ g/ z/ g/ z/ g/ | %114
 z/ g/ z/ ^^f/ z/ g/ z/ f/ z/ g/ z/ f/ z/ g/ z/ f/ | g2 !fermata!G,6 | z2 G4 E>C | %117
({^B,(C)D)} (C2 B,2-) B,B, G>B, | (D2 C2-) C(C G>C) | (E2 D2-) D(D G>D) | %120
"_cresc." E [Gg]2 [Gg]2 [Gg][Ee][Cc]!mf! | [Cc] [^B,^B]2 [B,B]2 [B,B][Gg][B,B] | %122
 [Dd] [Cc]2 [Cc]2 [Cc][Gg][Cc] | [Ee] [Dd]2 [Dd]2 [Dd][Gg][Dd] | [^E^e]4 [Ff]4 | [Dd]2{cd} [Ee]6 | %126
 [Cc]4 [=D=d]4 | [=C=c]2({_Bc)} [^C^c]6 | %128
!ff!!ff!!ff!!ff! [=DFA=d]4- [DFAd]/!p![Q:1/4=94]A/B/c/ d/e/f/e/ | %129
 =d/A/B/c/ d/e/f/e/ d/A/B/c/ d/e/f/e/ |!<(! =d/A/B/c/ d/e/f/=g/ a/^g/a/g/ a/f/!<)!e/!f!d/ | %131
!p![Q:1/4=184] c4 d4 |{c=d} .c2 [=D,F,A,=D]2- [D,F,A,D]/[Q:1/4=84]A,/B,/C/ D/E/F/E/ | %133
 =D/A,/B,/C/ D/E/F/E/ D/A,/B,/C/ D/E/F/E/ | =D/A,/B,/C/ D/E/F/=G/ A/B/c/=d/ e/f/=g/^g/ | %135
!f![Q:1/4=180] [Aa]4 [Cc]4 | [Ee]4 [=C,F,=C]4 |[Q:1/4=150] [C,E,C].E.E.E .E.E.D.C | %138
 [G,^B,G-][B,G-][B,G-][B,G-] [B,G-][B,G-][CG-][DG] | EEEE EEDC | %140
 [G,^B,G-][B,G-][B,G-][B,G-] [B,G-][B,G-][CG-][DG] | GGGE z AAF | z GGE z DD^B, | %143
 E[Ee][Ee][Ee] [Ee][Ee][Dd][Cc] | ^B[B^b][Bb][Bb] [Bb][Bb][cc'][dd'] | %145
 [ee'][Ee][Ee][Ee] [Ee][Ee][Dd][Cc] | ^B[B^b][Bb][Bb] [Bb][Bb][cc'][dd'] | [ec'e']c'c'g z c'c'a | %148
 z eeg z ddg | z eeg z =ddf | z cce z =ccd | [Ec]2 z4 E>C | =C2 G2 G2 G2 |{C} G6 e>c | %154
 =c2 g2 g2 g2 | g4 g4 | g4 g4 | [E,G,C]4 [E,G,C]4 | [C,E,G,C]4 [C,E,G,C]4 | %159
 [C,F,A,C]!8vb(![C,F,A,C] z [F,A,CF] z [A,CFA]!8vb)! z [CFAc] | z [FAcf] z [Acfa] z c[cc'][cc'] | %161
 z!8vb(! [C,E,G,C] z [E,G,CE] z [G,CEG] z [CEGc]!8vb)! | z [EGce] z [Gceg] z c[cc'][cc'] | %163
[Q:1/4=100] z!8vb(! C,/4-E,/4-^^F,/4-^A,/4- [C,E,F,A,C]2- [C,E,F,A,C]!8vb)!C/4-E/4-^^F/4-^A/4- [CEFAc]2- | %164
 [CEFAc]c/4-e/4-^^f/4-^a/4- [cefac']6 | %165
 z!8vb(! A,,/4-C,/4-D,/4-F,/4- [A,,C,D,F,A,]2- [A,,C,D,F,A,]!8vb)!A,/4-^B,/4-D/4-F/4- [A,B,DFA]2- | %166
 ([A,B,DFA]/A/-^B/-d/- [ABda]6) |[Q:1/4=150] [CEG]8 | [DFG]8 | [CEG]8 | [^B,FG]8 | %171
 [CEG]2!p! [Gg]4 e>c | (c2 ^B2-) B(B g>B) | (d2 c2-) c(c g>c) | (e2 d2-) d(d g>d) | %175
"_cresc." fec'e f^ec'e | gfc'f agc'g | %177
[Q:1/4=100] (5:4:5[Acfa]2 [A,CFA]2!8vb(! [A,,C,F,A,]2!8vb)! [A,CFA]2 [Acfa]2 | %178
 (5:4:5[A=dfa]2 [A,=DFA]2!8vb(! [A,,=D,F,A,]2!8vb)! [A,DFA]2 [Adfa]2 | %179
[Q:1/4=70] (7:4:7[e^^f^ac']2 [E^^F^Ac]2 [E,^^F,^A,C]2 C,2 [E,F,A,C]2 [EFAc]2 [efac']2 | %180
 (7:4:7[egc'e']2 [EGce]2 [CEGc]2 [G,CEG]2!8vb(! [E,G,CE]2 [C,E,G,C]2 [G,,C,E,G,]2!8vb)! | z8 | %182
[Q:1/4=32] a8{gfedfc^BdAGFAEDFC^B,DA,G,F,A,E,D,F,C,^B,,D,A,,G,,} |[Q:1/4=71]"^Adagio" z8 | z8 | %185
[Q:1/4=150] z6 E>C | =C2 G2 G2 G2 |{C} G6 e>c | =c2 g2 g2 g2 | g4 g4 | g4 g4 | %191
!f! g2 ([EGce]2 [Gceg]2 [cegc']2 | [egc'e']2 [cegc']2 [Gceg]2 [EGce]2 | %193
 [CEGc]2 [G,CEG]2 [E,G,CE]2 [C,E,G,C]2) | z2 z2!fff!!fff!!fff!!fff! [cegc']2 z2 | [CEGc]2 z2 z4 |] %196
V:2
 C,, z G,, z C,, z G,, z |: C,, z G,, z C,,G,,[C,,C,]G,, | ^B,,, z G,, z B,,, z G,, z | %3
 ^B,,, z G,, z B,,,G,,[B,,,^B,,]G,, | B,,, z G,, z B,,, z G,, z | %5
 B,,, z G,, z B,,,G,,[B,,,B,,]G,, | A,,, z A,, z A,,, z A,, z | A,,, z A,, z A,,, z A,, z | %8
 [G,,,G,,][K:treble][G,-^B,][G,-B,][G,-C] [G,-D][G,-E][G,-F][G,-D] | %9
 [G,-F][G,-E][G,-A][G,-G] [G,-F][G,-E][G,-D][G,C] | %10
 [G,-^B,][G,-B,][G,-B,][G,-C] [G,-D][G,-E][G,-F][G,-D] | %11
 [G,-F][G,-E][G,-A][G,-G] [G,-F][G,-E][G,-D][G,C] | %12
 [G,^B,][G,C][G,B,][G,C] [G,B,][G,C][G,B,][G,C] | [G,^B,]2[K:bass] !fermata![G,,,G,,]6 | %14
 C,, z G,, z C,, z G,, z | C,, z G,, z C,,G,,[C,,C,]G,, | ^A,,, z C, z ^A,, z C, z | %17
 ^A,, z C, z A,,C,[^A,,,A,,]C, | ^^F,,, z D, z ^^F,, z D, z | ^^F,, z D, z F,, z D, z | %20
 [G,,B,,D,]8 | [^A,,C,D,]8 | [B,,D,]8 | [^^F,,D,]8 | [G,,D,]8 | [^A,,D,]8 | [B,,D,]8 | [^^F,,D,]8 | %28
 [F,,G,,D,]4 [E,,G,,C,]4 | [E,,F,,C,]2 [D,,F,,B,,]6 | [=D,,E,,B,,]4 [C,,E,,A,,]4 | %31
 [C,,D,,^A,,]2 [B,,,D,,G,,]6 |!ff!!ff!!ff!!ff! [C,,E,,A,,C,]4- [C,,E,,A,,C,]2 z2 | %33
[K:treble] [CEA]2 z2 [CEA]2 z2 | [CEA]2 [CEA]2 [CEA]2 [CEA]2 | [DGB]4 [D^^Fc]4 | %36
 .[EGB]2[K:bass] [C,,E,,=C,E,]2- [C,,E,,C,E,]2 z2 | z2 .[C,E,A,]2 z2 .[C,E,A,]2 | %38
 z .[C,E,A,] z .[C,E,A,] z .[C,E,A,] z .[C,E,A,] | .[C,E,A,]2 z2 z4 | [C,E,A,]4 [^^C,^E,B,]4 | %41
 [D,G,B,]4 [D,,^^C,D,]4 | G,,D z6 | [D,C] z z2 z4 | [G,,G,] z z2 z4 | [D,C] z z2 z4 | A,,4 C,4 | %47
 D,4 D,4 | [G,,,G,,]G,,G,,G,, G,,G,,^A,,B,, | D,, z z C CCB,^A, | z G,,G,,G,, G,,G,,^A,,B,, | %51
 D,, z z C CCB,^A, | [G,,G,]4 C,4 | D,4 C,4 | B,,4 C,4 | D,4 D,4 | [G,,D,G,]8 | G,,2 ^A,6 | %58
 [G,,D,G,]8 | G,,2 ^A,6 | [G,,G,]4 !arpeggio![G,,^A,]4 | [G,,G,]4 !arpeggio![G,,^A,]4 | %62
 [G,,D,G,]4 [G,,D,G,]4 | [G,,D,F,]4 [G,,D,F,]4 |1 C,, z G,, z C,, z G,, z :|2 %65
 C,, z G,, z C,, z G,, z || C,, z G,, z C,,G,,[C,,C,]G,, | B,,, z G,, z B,,, z G,, z | %68
 B,,, z G,, z B,,,G,,[B,,,B,,]G,, | A,,, z A,, z A,,, z A,, z | ^E,,, z ^E,, z E,,, z E,, z | %71
 [F,,,F,,]2 [F,A,C]6 | [G,B,C]8 | [A,C]8 | [^E,C]8 | .F,2 (C4 A,>F,) | (F,2 ^E,2-) E,(E, C>E,) | %77
 (G,2 F,2-) F,(F, C>F,) | F,(F,"^cresc." =D>F,) F,(F, D>F,) |!p! =G,2"_express." (=D,4 B,,>=G,,) | %80
 (=G,,2 F,,2-) F,,(F,, =D,>F,,) | (A,,2 =G,,2-) G,,(G,, =D,>F,,) | (F,,2 ^E,,2-) E,,(E,, C,>E,,) | %83
 F,,(F,,A,,F,,) =D,,(D,,F,,D,,) | ^B,,,4 B,,,B,,,D,,B,,, | C,,(C,,E,,C,,) A,,,(A,,,C,,A,,,) | %86
 F,,,(F,,,A,,,F,,,) ^^F,,,(F,,,^A,,,F,,,) | [G,,,G,,]4!8vb(! G,,,G,,G,,,G,, | %88
 G,,,G,,G,,,G,, G,,,G,,G,,,G,, | G,,,G,,G,,,G,, G,,,G,,G,,,G,, | G,,,G,,G,,,G,, G,,,G,,G,,,G,, | %91
 G,,,G,,G,,,G,, G,,,G,,G,,,G,, | G,,,G,,G,,,G,, G,,,G,,G,,,G,, | G,,,G,,G,,,G,, G,,,G,,G,,,G,, | %94
 G,,,G,,G,,,G,, G,,,G,,G,,,G,, | G,,,G,,G,,,G,, G,,,G,,G,,,G,, | G,,,G,,G,,,G,, G,,,G,,G,,,G,, | %97
 G,,,G,,G,,,G,, G,,,G,,G,,,G,, | G,,,G,,G,,,G,, G,,,G,,G,,,G,, | %99
 G,,,G,,G,,,G,, G,,,G,,G,,,G,,!8vb)! | [F,,,F,,]8 | [G,,,G,,]8 | C,, z G,, z C,, z G,, z | %103
 C,, z G,, z C,,G,,[C,,C,]G,, | ^B,,, z G,, z B,,, z G,, z | ^B,,, z G,, z B,,,G,,[B,,,^B,,]G,, | %106
 B,,, z G,, z B,,, z G,, z | B,,, z G,, z B,,,G,,[B,,,B,,]G,, | A,,, z A,, z A,,, z A,, z | %109
 A,,, z A,, z A,,, z A,, z | [G,,,G,,][K:treble][G,-^B,][G,-B,][G,-C] [G,-D][G,-E][G,-F][G,-D] | %111
 [G,-F][G,-E][G,-A][G,-G] [G,-F][G,-E][G,-D][G,C] | %112
 [G,-^B,][G,-B,][G,-B,][G,-C] [G,-D][G,-E][G,-F][G,-D] | %113
 [G,-F][G,-E][G,-A][G,-G] [G,-F][G,-E][G,-D][G,C] | %114
 [G,^B,][G,C][G,B,][G,C] [G,B,][G,C][G,B,][G,C] | [G,^B,]2[K:bass] !fermata![G,,,G,,]6 | %116
 [C,E,G,]8 | [D,F,G,]8 | [E,G,]8 | [^B,,G,]8 | [C,E,G,]8 | [D,F,G,]8 | [E,G,]8 | [^B,,G,]8 | %124
 [B,,C,G,]4 [A,,C,F,]4 | [A,,B,,F,]2 [G,,B,,E,]6 | [=G,,A,,E,]4 [F,,A,,=D,]4 | %127
 [F,,G,,D,]2 [E,,G,,C,]6 |!ff!!ff!!ff!!ff! [F,,A,,=D,F,]4- [F,,A,,D,F,]2 z2 | %129
 [F,A,=D]2 z2 [F,A,D]2 z2 | [F,A,=D]2 [F,A,D]2 [F,A,D]2 [F,A,D]2 | [G,CE]4 [G,=CF]4 | %132
 .[A,CE]2 [F,,,A,,,F,,]2- [F,,,A,,,F,,]2 z2 | z2 .[F,,A,,=D,]2 z2 .[F,,A,,D,]2 | %134
 z .[F,,A,,=D,] z .[F,,A,,D,] z .[F,,A,,D,] z .[F,,A,,D,] | [F,,A,,=D,]4 [=G,,_B,,E,]4 | %136
 [G,,C,E,]4 [G,,,=G,,^G,,]4 | C,,C, z6 | [G,,F,] z z2 z4 | [C,,C,] z z2 z4 | [G,,F,] z z2 z4 | %141
 C,,4 F,,4 | G,,4 G,,4 | [C,,C,]C,C,C, C,C,D,E, | G,, z z F FFED | z C,C,C, C,C,D,E, | %146
 G,, z z F FFED | [C,C]4 F,4 | G,4 F,4 | E,4 F,,4 | G,,4 G,,4 | [C,,G,,C,]8 | C,,2 D,6 | %153
 [C,,G,,C,]8 | C,,2 D,6 | [C,,C,]4 !arpeggio![C,,D,]4 | [C,,C,]4 !arpeggio![C,,D,]4 | %157
 [C,,G,,C,]4 [C,,G,,C,]4 | [B,,,C,,B,,]4 [B,,,C,,B,,]4 | [A,,,A,,] z F,, z A,,, z F,, z | %160
 A,,, z F,, z A,,,F,,[A,,,A,,]F,, | G,,, z E,, z G,,, z E,, z | G,,, z E,, z G,,,E,,[G,,,G,,]E,, | %163
!ff! ^^F,,,2- F,,,F,,,/4-^A,,,/4-C,,/4-E,,/4- [F,,,A,,,C,,E,,^^F,,]2- [F,,,A,,,C,,E,,F,,](F,,/4-^A,,/4-C,/4-E,/4- | %164
 [F,,A,,C,E,^^F,]2) [F,^A,CE]6 | %165
!ff! F,,,2- F,,,F,,,/4-A,,,/4-^B,,,/4-D,,/4- [F,,,A,,,B,,,D,,F,,]2- [F,,,A,,,B,,,D,,F,,](F,,/4-A,,/4-^B,,/4-D,/4- | %166
 [F,,A,,B,,D,F,]2) [F,A,^B,D]6 | C,2 (G,4 E,>C,) | (C,2 ^B,,2-) B,,(B,, G,>B,,) | %169
 (D,2 C,2-) C,(C, G,>C,) | (E,2 D,2-) D,(D, G,>D,) | [E,G,]8 | [F,G,]8 | [E,G,]8 | [^B,,G,]8 | %175
 [C,G,]4 [B,,C,]4 | [A,,C,]4 [E,,C,]4 | [F,,,C,,F,,]8 | [F,,,=D,,F,,]8 | [F,,,C,,F,,]8 | %180
 [G,,,C,,G,,]8 | [G,,,C,,G,,]8 | [G,^B,F]8 |!p! [^^F,,,^^F,,]8 |!pp! [G,,,G,,]8 | [C,,G,,C,]8 | %186
 C,,2 D,6 | [C,,G,,C,]8 | C,,2 D,6 | [C,,C,]4 !arpeggio![C,,D,]4 | [C,,C,]4 !arpeggio![C,,D,]4 | %191
 [C,,G,,C,]2 ([E,G,C]2[K:treble] [G,CE]2 [CEG]2 | [EGc]2 [CEG]2 [G,CE]2[K:bass] [E,G,C]2 | %193
 [C,E,G,]2 [G,,C,E,]2 [E,,G,,C,]2 [E,,G,,C,]2) | %194
 [C,,C,]2 z2!fff!!fff!!fff!!fff! [C,,E,,G,,C,]2 z2 | [C,,E,,G,,C,]2 z2 z4 |] %196

